X:5058
T:The Wind In The Rye
M:6/8
R:March
L:1/8
Q:100
C:Aidan Crossey
K:D
|: F>AD F>AD|G/F/EF G/B/EG|F>AD F>AD|G/F/E/F/G/A/ D3:||
|:f/a/fd f/a/fd|g/b/ge g/b/ge|f/a/fd f/a/fd|g/f/e/f/g/a/ d3:||
|:F/E/D/E/F/A/ DFA|G/F/E/F/G/A/ Bcd|F/E/D/E/F/A/ DFA|G/F/E/G/B/c/ d3:||
|:f>ed d2c|B2g gfg|f>ed d2^d|1e>fd c>de:||2 e>gf d3|
|B2g g2f/g/|A2f f2e/f/|G2e e2f/d/|c>dB A2G|
F2d d2F|G2e e>de|f>ed B>AG|A>Bc d3||
